X:16
T:Joy to the World
R:March
C:Lowell Mason 1839 after Handel
O:USA after Germany
Z:Paul Hardy's Xmas Tunebook 2012 (see www.paulhardy.net). Creative Commons cc by-nc-sa licenced.
M:2/2
L:1/4
K:D
"D"d2 "G"c>B|"D"A3 "Em"G|"D"F2 "A7"E2|"D"D3 A|"G"B3 B|"A7"c3 c|"D"d4 |d3 d|
"D"dc BA|A>G Fd|dc BA|A>G FF|
FF FF/G/|A3 G/F/|"A7"EE EE/F/|G3 F/E/|
"D"Dd- "G"dB|"D"A>G F"Em"G|"D"F2 "A7"E2|"D"D4|]
W:
W:1.Joy to the World , the Lord is come!
W:Let earth receive her King;
W:Let every heart prepare Him room,
W:And Heaven and nature sing,
W:And Heaven and nature sing,
W:And Heaven, and Heaven, and nature sing.
W:
W:
W:2.Joy to the World, the Savior reigns!
W:Let men their songs employ;
W:While fields and floods, rocks, hills and plains
W:Repeat the sounding joy,
W:Repeat the sounding joy,
W:Repeat, repeat, the sounding joy.
W:
W:
W:3.He rules the world with truth and grace,
W:And makes the nations prove
W:The glories of His righteousness,
W:And wonders of His love,
W:And wonders of His love,
W:And wonders, wonders, of His love.

